build/img/spy-w.svg

<svg width="31" height="26" viewBox="0 0 31 26" fill="none" xmlns="http://www.w3.org/2000/svg">
<path d="M15.7697 8.18542C15.443 8.18542 15.1777 8.45125 15.1777 8.77924C15.1777 9.107 15.443 9.37306 15.7697 9.37306C16.0964 9.37306 16.3617 9.107 16.3617 8.77924C16.3617 8.45125 16.0964 8.18542 15.7697 8.18542Z" fill="#ffffff"/>
<path d="M29.148 11.7484H26.8446C25.6304 8.27037 23.8686 2.17193 20.6771 0.445918C19.0809 -0.416274 17.5721 0.185892 17.0046 1.40924C16.7632 1.9293 16.2811 2.20278 15.7696 2.20278C15.2511 2.20278 14.7729 1.92327 14.5345 1.40971C13.9872 0.228109 12.5144 -0.429264 10.9742 0.32066C7.73154 1.9003 5.91819 8.24415 4.69448 11.7484H2.39113C1.40999 11.7484 0.615234 12.5454 0.615234 13.5298C0.615234 14.5119 1.41184 15.3113 2.39113 15.3113H29.148C30.1291 15.3113 30.9239 14.514 30.9239 13.5298C30.9239 12.5475 30.1273 11.7484 29.148 11.7484ZM6.77399 9.3731H13.4017C13.7287 9.3731 13.9937 9.10704 13.9937 8.77928C13.9937 8.45129 13.7287 8.18547 13.4017 8.18547H7.18791C8.97236 3.24079 10.6393 1.80404 11.4912 1.38906C12.4206 0.936744 13.1855 1.3153 13.4611 1.91051C13.8954 2.84623 14.7937 3.39041 15.7696 3.39041C16.7477 3.39041 17.6449 2.84414 18.078 1.91051C18.3617 1.29837 19.1306 0.959476 20.1154 1.49136C20.9712 1.95435 22.6331 3.43889 24.351 8.18547H18.1374C17.8105 8.18547 17.5455 8.45129 17.5455 8.77928C17.5455 9.10727 17.8105 9.3731 18.1374 9.3731H24.7654C25.0646 10.2388 25.3754 11.132 25.5904 11.7484H5.94894C6.1633 11.1337 6.47338 10.2425 6.77399 9.3731ZM29.148 14.1236H2.39113C2.06463 14.1236 1.79917 13.8571 1.79917 13.5298C1.79917 13.2018 2.06416 12.936 2.39113 12.936H29.148C29.4745 12.936 29.74 13.2023 29.74 13.5298C29.74 13.8576 29.4747 14.1236 29.148 14.1236Z" fill="#ffffff"/>
<path d="M14.5859 17.6866H5.11443C4.78746 17.6866 4.52246 17.9525 4.52246 18.2804V20.6557C4.52246 23.6025 6.91252 26.0001 9.85015 26.0001C12.076 26.0001 14.0462 24.6266 14.8298 22.5575C15.425 22.2852 16.1146 22.2852 16.7098 22.5575C17.4935 24.6266 19.4636 25.9998 21.6895 25.9998C24.6271 25.9998 27.0172 23.6025 27.0172 20.6555V18.2802C27.0172 17.9522 26.7522 17.6864 26.4252 17.6864H16.9537C16.6268 17.6864 16.3618 17.9522 16.3618 18.2802V18.874H15.1778V18.2802C15.1778 17.9525 14.9129 17.6866 14.5859 17.6866ZM9.85015 24.8124C7.5653 24.8124 5.70639 22.9477 5.70639 20.6557V18.8743H13.9939V20.6557C13.9939 22.9537 12.1449 24.8124 9.85015 24.8124ZM17.5457 18.8743H25.8332V20.6557C25.8332 22.9477 23.9743 24.8124 21.6895 24.8124C19.3889 24.8124 17.5457 22.9482 17.5457 20.6557V18.8743ZM16.3618 20.0619V20.6557C16.3618 20.8455 16.3726 21.0345 16.3923 21.2222C15.9809 21.1468 15.5587 21.1468 15.1473 21.2222C15.167 21.0345 15.1778 20.8455 15.1778 20.6557V20.0619H16.3618Z" fill="#ffffff"/>
<path d="M9.84997 22.437C8.87068 22.437 8.07407 21.6377 8.07407 20.6556C8.07407 20.3276 7.80907 20.0618 7.4821 20.0618C7.15513 20.0618 6.89014 20.3276 6.89014 20.6556C6.89014 22.2925 8.2179 23.6247 9.84997 23.6247C10.1769 23.6247 10.4419 23.3586 10.4419 23.0308C10.4419 22.7029 10.1769 22.437 9.84997 22.437Z" fill="#ffffff"/>
<path d="M21.6896 23.6247C23.3217 23.6247 24.6495 22.2925 24.6495 20.6556C24.6495 20.3276 24.3845 20.0618 24.0575 20.0618C23.7305 20.0618 23.4655 20.3276 23.4655 20.6556C23.4655 21.6377 22.6689 22.437 21.6896 22.437C21.3627 22.437 21.0977 22.7029 21.0977 23.0308C21.0977 23.3586 21.3627 23.6247 21.6896 23.6247Z" fill="#ffffff"/>
</svg>

<svg width="31" height="26" fill="none" xmlns="http://www.w3.org/2000/svg"><path d="M15.77 8.185a.593.593 0 10.002 1.187.593.593 0 00-.002-1.187z" fill="#fff"/><path d="M29.148 11.748h-2.303C25.63 8.27 23.869 2.172 20.677.446c-1.596-.862-3.105-.26-3.672.963a1.34 1.34 0 01-1.235.794 1.34 1.34 0 01-1.236-.793c-.547-1.182-2.02-1.84-3.56-1.09-3.242 1.58-5.056 7.924-6.28 11.428H2.391c-.981 0-1.776.797-1.776 1.782a1.78 1.78 0 001.776 1.781h26.757c.981 0 1.776-.797 1.776-1.781a1.78 1.78 0 00-1.776-1.782zM6.774 9.373h6.628a.593.593 0 000-1.188H7.188c1.784-4.944 3.451-6.381 4.303-6.796.93-.452 1.694-.074 1.97.522a2.523 2.523 0 002.309 1.48c.978 0 1.875-.547 2.308-1.48.284-.613 1.053-.952 2.037-.42.856.463 2.518 1.948 4.236 6.694h-6.214a.593.593 0 000 1.188h6.628l.825 2.375H5.95c.214-.614.524-1.505.825-2.375zm22.374 4.75H2.391a.594.594 0 010-1.187h26.757a.593.593 0 010 1.188zm-14.562 3.564H5.114a.593.593 0 00-.592.593v2.376C4.522 23.603 6.912 26 9.85 26a5.316 5.316 0 004.98-3.442 2.265 2.265 0 011.88 0A5.316 5.316 0 0021.69 26c2.937 0 5.327-2.398 5.327-5.345V18.28a.593.593 0 00-.592-.594h-9.471a.593.593 0 00-.592.594v.594h-1.184v-.594a.593.593 0 00-.592-.593zM9.85 24.812a4.154 4.154 0 01-4.144-4.156v-1.782h8.288v1.782a4.145 4.145 0 01-4.144 4.156zm7.696-5.938h8.287v1.782c0 2.292-1.859 4.156-4.143 4.156a4.145 4.145 0 01-4.144-4.156v-1.782zm-1.184 1.188v.594c0 .19.01.379.03.566a3.455 3.455 0 00-1.245 0c.02-.188.03-.377.03-.566v-.594h1.185z" fill="#fff"/><path d="M9.85 22.437c-.98 0-1.776-.8-1.776-1.781a.593.593 0 10-1.184 0 2.968 2.968 0 002.96 2.969.593.593 0 000-1.188zm11.84 1.188a2.968 2.968 0 002.96-2.97.593.593 0 10-1.184 0 1.78 1.78 0 01-1.776 1.782.593.593 0 000 1.188z" fill="#fff"/></svg>
